X:1
T:[ID 3-63]
T:[ID 3-63]
T:Bezeichnung standardisiert: Allegro Allegro
T:Urheber unbekannt Datum in der hier transkribierten schriftlichen Quelle: 1767
C:Urheber unbekannt
C:Datum in der hier transkribierten schriftlichen Quelle: 1767
%%score 1 2
L:1/8
M:2/4
K:D
V:1 treble nm="Primo"
V:2 treble nm="Secondo"
V:1
 A | dAAd | eAAe | f/g/ a2 g/f/ | e2 z f | (gf)(ba) | (ed)(gf) | gfba | edgf | edcd | e3 :: e | %12
 aeea | beeb | c' e'2 d'/c'/ | b2 z c' | d'c'ba | d'c'ba | bae^g | a2 z a | afd=c' | =c'b z b | %22
 b^ged' | d'c' z A | dAAe | f/g/ a2 g | fe/d/ f/e/d/c/ | d3 :| %28
V:2
 !fermata!A | F2 z F | A2 z c | d/e/ f2 e/d/ | c2 z d | (ed)(gf) | (gf)(ba) | edgf | gfba | gfef | %10
 A3 :: c | c A2 c | e2 z ^g | a c'2 b/a/ | ^g2 z e | fedc | fedc | cdcB | c2 z f | fdFa | ag z ^g | %22
 ^geAb | ba z D | F2 A z | d/e/ f2 e | dc/B/ d/c/B/A/ | F3 :| %28

